<?xml version="1.0" encoding="UTF-8"?>
<map version="1.10" tiledversion="1.11.2" orientation="orthogonal" renderorder="right-down" width="64" height="48" tilewidth="16" tileheight="16" infinite="0" nextlayerid="5" nextobjectid="1">
 <tileset firstgid="1" name="collision" tilewidth="16" tileheight="16" tilecount="1" columns="1">
  <image source="../../../../../docs/tiled/assets/collision.png" width="16" height="16"/>
 </tileset>
 <tileset firstgid="2" name="Wasteland_Enviro_16px" tilewidth="16" tileheight="16" tilecount="935" columns="17">
  <image source="../../../../../docs/Wasteland-v0.1/Environment/Wasteland_Enviro_16px.png" width="272" height="880"/>
 </tileset>
 <tileset firstgid="937" name="Wasteland_Buildings_16px" tilewidth="16" tileheight="16" tilecount="672" columns="16">
  <image source="../../../../../docs/Wasteland-v0.1/Environment/Wasteland_Buildings_16px.png" width="256" height="672"/>
 </tileset>
 <tileset firstgid="1609" name="Tileset_Water" tilewidth="16" tileheight="16" tilecount="312" columns="24">
  <image source="../../../../../docs/tiled/assets/Tileset_Water.png" width="384" height="208"/>
 </tileset>
 <imagelayer id="4" name="base" repeatx="1" repeaty="1">
  <image source="../../../../../docs/tiled/assets/wasteland_base.png" trans="000000" width="48" height="41"/>
 </imagelayer>
 <layer id="2" name="background" width="64" height="48">
  <data encoding="csv">
93,111,127,127,127,127,127,127,127,127,127,127,127,127,127,127,127,127,127,127,127,127,127,127,127,127,127,127,127,127,127,127,127,127,127,127,127,127,127,127,127,127,127,127,127,127,127,127,127,127,127,127,127,127,127,127,127,127,127,0,0,0,0,0,
93,128,0,0,0,0,0,0,0,0,0,0,0,0,0,0,0,0,0,0,0,0,0,0,0,0,0,0,0,0,793,794,795,796,797,0,0,857,858,859,860,861,862,0,0,0,0,0,0,0,0,0,0,0,0,0,0,0,0,0,0,268,0,0,
94,0,0,0,0,0,0,0,0,0,0,626,627,628,629,0,0,0,0,0,0,717,718,719,720,721,0,0,0,0,810,811,812,813,814,0,0,874,875,876,877,878,879,0,0,0,0,0,0,177,178,179,180,0,0,643,644,645,646,646,0,285,0,0,
94,0,0,0,0,0,0,0,0,0,0,643,644,645,646,0,0,0,0,0,0,734,735,736,737,738,0,0,0,0,827,828,829,830,831,0,0,891,892,893,894,895,896,0,0,0,0,0,0,194,195,196,197,0,0,660,661,662,663,663,0,302,0,0,
94,0,0,0,0,0,0,177,178,179,180,660,661,662,663,177,178,179,180,0,0,751,752,753,754,755,0,0,0,0,844,845,846,847,848,0,0,908,909,910,911,912,913,785,786,787,788,789,0,0,0,0,0,0,0,677,643,644,645,646,0,268,0,0,
94,0,0,0,0,0,0,194,195,196,197,677,678,679,680,194,195,196,197,0,0,0,0,0,0,0,0,0,0,0,0,0,0,0,0,0,0,0,0,0,0,0,0,802,803,804,805,806,0,0,0,0,0,0,0,0,660,661,662,663,0,285,0,0,
94,0,0,0,0,0,0,0,0,0,0,694,695,696,697,0,0,0,0,0,0,0,0,177,178,179,180,0,0,0,0,0,0,0,0,0,0,0,0,0,0,0,0,819,820,821,822,823,0,0,671,672,673,0,0,0,677,678,679,680,0,302,0,0,
94,0,0,0,0,0,0,0,0,0,0,0,0,0,0,0,0,0,0,0,0,0,0,194,195,196,197,0,0,0,0,0,0,0,0,0,0,0,0,0,0,0,0,836,837,838,839,840,0,0,688,689,690,0,0,0,0,0,0,0,0,268,0,0,
94,0,0,0,0,0,0,0,0,0,0,0,0,0,0,0,0,0,0,0,0,0,0,0,0,0,0,0,0,0,0,0,0,0,0,0,0,0,0,0,0,0,0,0,0,0,0,0,0,0,705,706,707,0,0,0,0,0,0,0,0,285,0,0,
94,0,0,0,0,0,241,242,245,246,247,248,249,250,250,250,250,250,250,250,250,250,250,244,245,246,247,248,249,250,245,246,247,248,249,250,250,250,250,250,250,250,250,250,250,250,250,250,251,0,0,0,0,0,0,857,858,859,860,861,0,302,0,0,
94,0,0,0,0,0,327,0,0,0,0,0,0,0,0,0,186,187,188,0,0,0,0,0,0,0,0,0,0,0,0,0,0,0,0,0,0,0,0,0,0,0,0,0,0,0,0,0,268,0,0,0,0,0,0,874,875,876,877,878,0,268,0,0,
94,0,0,0,0,0,327,0,0,0,0,0,0,0,0,0,203,204,205,0,0,0,0,0,0,0,0,0,172,173,174,175,176,0,0,0,0,0,0,0,0,0,793,794,795,796,797,0,285,0,0,0,0,0,0,891,892,893,894,895,0,285,0,0,
94,0,0,0,0,0,327,0,0,0,0,0,0,0,0,0,0,0,0,0,0,0,0,0,0,0,0,0,189,190,191,192,193,0,0,0,0,0,0,0,0,0,810,811,812,813,814,0,302,0,0,0,0,0,0,908,909,910,911,912,0,302,0,0,
94,0,0,0,0,0,327,0,0,0,0,0,0,1610,1611,1611,1611,1611,1611,1611,1611,1611,1611,1611,1611,1611,1611,1611,1611,1612,0,0,0,0,0,0,0,0,0,0,0,0,827,828,829,830,831,0,268,0,857,858,859,860,861,0,0,0,0,0,0,268,0,0,
94,0,0,0,0,0,327,0,0,0,0,0,0,1634,1801,1802,1803,1801,1802,1803,1801,1802,1803,1801,1802,1803,1807,1808,1809,1636,0,0,0,785,786,787,788,789,0,0,0,0,844,845,846,847,848,0,285,0,874,875,876,877,878,0,0,0,0,0,0,285,0,0,
94,0,0,0,0,0,327,0,0,0,0,0,0,1634,1801,1802,1803,1801,1802,1803,1801,1801,1801,1801,1802,1803,1807,1808,1809,1636,0,0,0,802,803,804,805,806,0,0,0,0,0,0,0,0,0,0,302,0,891,892,893,894,895,0,0,0,0,0,0,302,0,0,
94,0,0,0,0,0,344,0,0,0,0,0,0,1634,1801,1802,1803,1801,1802,1803,1635,1635,1635,1635,1802,1803,1807,1808,1809,1636,0,0,0,819,820,821,822,823,0,0,0,0,0,0,0,0,0,0,268,0,908,909,910,911,912,0,0,0,0,0,0,268,0,0,
94,0,0,0,0,0,361,0,0,0,0,0,0,1634,1801,1802,1803,1801,1802,1803,1635,1635,1635,1635,1635,1635,1807,1808,1809,1636,0,0,0,836,837,838,839,840,0,0,0,0,0,0,0,0,0,0,285,0,0,0,0,0,0,0,643,644,645,646,0,285,0,0,
94,411,412,413,412,413,344,413,414,0,0,0,0,1634,1801,1802,1803,1801,1802,1803,1635,1635,1635,1635,1635,1635,1807,1808,1809,1636,0,0,0,0,0,0,0,0,0,0,0,0,0,0,0,0,0,0,302,0,0,0,0,0,0,0,660,661,662,663,0,302,0,0,
94,428,429,430,429,429,429,430,431,0,0,0,0,1634,1801,1802,1803,1801,1802,1803,1635,1635,1635,1635,1635,1635,1807,1808,1809,1636,0,0,0,0,0,0,0,0,0,0,0,0,0,0,0,0,0,0,285,0,0,0,0,0,0,0,677,678,679,680,0,268,0,0,
94,445,429,429,446,446,446,447,448,0,0,0,0,1634,1801,1802,1803,1801,1802,1803,1635,1635,1635,1635,1635,1635,1808,1809,1723,1906,0,0,0,0,0,0,0,0,0,0,0,0,0,0,0,0,0,0,302,0,0,0,0,0,0,0,0,0,0,0,0,285,0,0,
94,462,446,429,463,463,463,464,465,0,0,0,0,1634,1801,1802,1803,1801,1802,1803,1635,1635,1635,1635,1635,1635,1808,1809,1879,0,0,0,0,0,0,0,0,0,0,0,0,0,0,0,0,0,0,0,268,0,643,644,645,646,0,0,0,0,0,0,0,302,0,0,
94,479,429,430,480,480,480,481,482,0,0,0,0,1634,1801,1802,1803,1801,1802,1803,1635,1635,1635,1635,1635,1635,1808,1809,1877,0,0,793,794,795,796,797,0,0,0,0,0,857,858,859,860,861,862,0,285,0,660,661,662,663,0,0,0,0,0,0,0,268,0,0,
94,428,429,429,429,480,481,481,431,0,0,0,0,1634,1801,1802,1803,1801,1802,1803,1635,1635,1635,1635,1635,1635,1808,1809,1873,0,0,810,811,812,813,814,0,0,0,0,0,874,875,876,877,878,879,0,302,0,677,678,679,680,0,0,0,0,0,0,0,285,0,0,
94,445,446,446,446,463,480,481,448,0,0,0,0,1634,1801,1802,1803,1801,1802,1803,1635,1635,1635,1635,1635,1807,1808,1809,1883,0,0,827,828,829,830,831,0,0,0,0,0,891,892,893,894,895,896,0,302,0,0,0,0,0,0,0,0,0,0,0,0,302,0,0,
94,462,463,463,463,480,480,481,465,0,0,0,0,1658,1659,1659,1659,1659,1706,1801,1802,1803,1801,1802,1803,1807,1808,1809,1889,0,0,844,845,846,847,848,0,0,0,0,0,908,909,910,911,912,913,0,319,316,317,318,316,317,318,316,317,318,316,317,318,319,0,0,
94,479,480,480,480,480,480,481,482,0,0,0,0,0,0,0,0,0,1658,1706,1801,1802,1801,1802,1803,1807,1808,1809,1891,0,0,0,0,0,0,0,177,178,179,180,0,0,0,0,0,0,0,0,327,0,0,0,0,0,0,0,0,0,0,0,0,268,0,0,
94,496,497,498,497,498,497,498,499,0,0,0,0,0,0,0,0,0,0,1658,1706,1801,1801,1802,1803,1807,1808,1809,1895,0,0,0,0,0,0,0,194,195,196,197,0,0,0,0,0,0,0,0,344,0,0,0,0,0,0,793,794,795,796,797,0,285,0,0,
94,0,0,0,0,0,0,0,0,0,0,0,0,793,794,795,796,797,798,0,1634,1801,1801,1802,1803,1807,1808,1809,1895,0,0,0,0,0,0,0,0,0,0,0,0,0,0,0,0,0,0,0,361,0,181,182,183,184,0,810,811,812,813,814,0,302,0,0,
94,0,0,0,0,0,0,0,0,0,0,0,0,810,811,812,813,814,815,0,1658,1706,1807,1808,1809,1807,1808,1809,1857,0,0,0,0,0,0,0,0,0,0,0,0,0,0,0,0,0,0,0,327,0,198,199,200,201,0,827,828,829,830,831,0,268,0,0,
94,0,0,0,0,0,0,0,0,0,0,0,0,827,828,829,830,831,832,0,0,1634,1807,1808,1809,1807,1808,1809,1857,0,0,0,0,857,858,859,860,861,862,0,0,0,0,0,0,0,0,0,344,0,0,0,0,0,0,844,845,846,847,848,0,285,0,0,
94,0,0,0,0,0,0,0,0,0,0,0,0,844,845,846,847,848,849,0,0,1634,1807,1808,1809,1807,1808,1809,1747,1618,0,0,0,874,875,876,877,878,879,0,793,794,795,796,797,0,0,0,361,0,0,0,0,0,0,0,0,0,0,0,0,302,0,0,
94,0,0,0,0,0,643,644,645,646,0,0,0,0,0,0,0,0,0,0,0,1634,1807,1808,1809,1809,1807,1808,1809,1747,1618,0,0,891,892,893,894,895,896,0,810,811,812,813,814,0,0,0,327,0,708,709,710,711,0,0,0,0,0,0,0,268,0,0,
94,0,0,0,0,0,660,661,662,663,0,0,0,0,0,717,718,719,720,721,0,1634,1807,1808,1809,1808,1809,1807,1808,1809,1642,0,0,908,909,910,911,912,913,0,827,828,829,830,831,0,0,0,344,0,725,726,727,728,0,0,0,0,0,0,0,285,0,0,
94,0,0,0,0,0,677,678,679,680,0,0,0,0,0,734,735,736,737,738,0,1658,1659,1659,1665,1665,1665,1665,1665,1665,1666,0,0,0,0,0,0,0,0,0,844,845,846,847,848,0,0,0,361,0,742,743,744,745,0,0,0,0,0,0,0,302,0,0,
94,0,0,0,0,0,0,0,0,0,0,0,0,0,0,751,752,753,754,755,0,0,0,0,0,0,0,0,0,0,0,0,0,0,0,0,0,0,0,0,0,0,0,0,0,0,0,0,327,0,759,760,761,762,0,0,719,719,720,721,0,268,0,0,
94,0,0,0,0,0,0,0,0,0,0,0,0,0,0,0,0,0,0,0,0,0,0,0,181,182,183,184,0,0,793,794,795,796,797,0,0,177,178,179,180,0,0,0,0,0,0,0,344,0,0,0,0,0,0,0,736,719,720,721,0,285,0,0,
94,0,0,0,0,0,0,0,0,0,0,0,0,0,0,0,0,0,0,0,0,0,0,0,198,199,200,201,0,0,810,811,812,813,814,0,0,194,195,196,197,0,0,0,0,0,0,0,361,0,0,0,0,0,0,0,753,719,720,721,0,302,0,0,
94,0,0,0,0,0,0,0,0,0,0,0,0,0,0,0,0,0,0,0,0,0,0,0,0,0,0,0,0,0,827,828,829,830,831,0,0,0,0,0,0,0,0,0,0,0,0,0,327,0,0,0,0,0,0,0,0,719,720,721,0,268,0,0,
94,0,0,0,0,0,0,0,0,0,0,0,0,0,717,718,719,720,721,0,626,627,628,629,0,0,0,0,0,0,844,845,846,847,848,0,0,0,0,0,0,0,0,0,71,72,72,72,344,72,72,72,72,73,0,0,0,736,737,738,0,285,0,0,
94,0,0,792,793,794,795,796,797,798,0,0,0,0,734,735,736,737,738,0,643,644,645,646,0,0,0,0,0,0,0,0,0,0,0,793,794,795,796,797,0,0,71,72,89,110,110,110,361,110,110,110,110,90,0,0,0,753,754,755,0,302,0,0,
94,0,0,809,810,811,812,813,814,815,0,0,0,0,751,752,753,754,755,0,660,661,662,663,717,718,719,720,721,721,721,0,0,0,0,810,811,812,813,814,0,0,88,110,110,110,111,127,127,127,127,109,110,89,72,72,72,73,0,0,0,268,0,0,
94,0,0,826,827,828,829,830,831,832,0,0,0,0,0,0,0,0,0,0,677,678,679,680,734,735,736,737,738,738,738,721,721,721,0,827,828,829,830,831,0,71,89,111,127,127,128,437,437,438,439,126,127,127,127,127,109,89,72,72,72,285,73,0,
94,0,0,843,844,845,846,847,848,849,785,786,787,788,789,0,0,0,0,0,694,695,696,697,751,752,753,754,755,755,755,738,738,738,0,844,845,846,847,848,71,89,111,128,434,435,436,437,434,1395,1396,435,436,437,438,439,126,127,127,127,109,302,89,72,
94,0,0,0,0,0,0,0,0,0,802,803,804,805,806,0,0,0,0,0,0,0,0,0,0,0,0,751,752,753,754,755,755,755,0,0,0,0,0,71,110,111,128,434,1109,1110,1111,1112,785,1411,1412,788,789,434,1530,1531,1532,437,438,439,126,109,110,110,
94,0,0,0,0,0,0,0,0,0,819,820,821,822,823,0,0,0,0,0,0,0,0,0,0,0,0,0,0,0,0,0,0,0,0,0,0,0,71,110,111,128,434,434,1125,1126,1127,1128,802,1427,1428,805,806,434,1546,1547,1548,436,437,84,439,126,109,110,
94,77,0,0,0,0,0,0,0,0,836,837,838,839,840,0,0,0,0,0,0,0,0,0,0,0,0,0,0,0,0,0,0,0,0,0,0,71,110,111,128,434,435,436,1141,1142,1143,1144,819,1443,1444,822,823,434,1562,1563,1564,132,436,101,438,439,126,109,
94,93,72,72,72,72,72,72,72,72,72,72,72,72,72,72,72,72,72,72,72,72,72,72,72,72,72,72,72,72,72,72,72,72,72,72,72,110,127,128,450,450,450,450,1157,1158,1159,1160,836,837,838,839,840,450,1578,1579,1580,149,450,450,450,450,450,126
</data>
 </layer>
 <layer id="1" name="foreground" width="64" height="48">
  <data encoding="csv">
0,0,0,0,0,0,0,0,0,0,0,0,0,0,0,0,0,0,0,0,0,0,0,0,0,0,0,0,0,0,0,0,0,0,0,0,0,0,0,0,0,0,0,0,0,0,0,0,0,0,0,0,0,0,0,0,0,0,0,606,588,534,588,589,
0,0,0,0,0,0,0,0,0,0,0,0,0,0,0,0,0,0,0,0,0,0,0,0,1535,0,0,0,0,0,0,0,0,0,0,0,0,0,0,0,0,0,0,0,0,0,0,0,0,0,0,0,0,0,0,0,0,0,0,0,0,0,0,586,
0,0,0,0,0,0,0,0,0,0,0,0,0,0,0,0,0,0,0,0,0,0,0,0,1535,0,0,0,0,0,0,0,0,0,0,0,0,0,0,0,0,0,0,0,0,0,0,0,0,0,0,0,0,0,0,0,0,0,0,0,0,0,0,603,
0,0,0,0,0,0,0,0,0,0,0,0,0,0,0,0,0,0,0,0,0,0,0,0,1551,0,0,0,0,0,0,0,0,0,0,0,0,0,0,0,0,0,0,0,0,0,0,0,0,0,0,0,0,0,0,0,0,0,0,0,0,0,0,586,
0,0,0,0,0,0,0,0,0,0,0,0,0,0,0,0,0,0,0,0,0,0,0,0,1567,0,0,0,0,0,0,0,0,0,0,0,0,0,0,0,0,0,0,0,0,0,0,0,0,0,0,0,0,0,0,0,0,0,0,0,0,0,0,603,
0,0,0,0,0,0,0,0,0,0,0,0,0,0,0,0,0,0,0,0,0,0,0,0,1526,0,0,0,0,0,0,0,0,0,0,0,0,0,0,0,0,0,0,0,0,0,0,0,0,0,0,0,0,0,0,0,0,0,0,0,0,0,0,586,
0,0,0,0,0,0,0,0,0,0,0,0,0,0,0,0,0,0,0,0,0,0,0,0,1542,0,0,0,0,0,0,0,0,0,0,0,0,0,0,0,0,0,0,0,0,0,0,0,0,0,0,0,0,0,0,136,0,0,0,0,0,0,0,603,
0,0,0,0,0,0,0,0,0,0,0,0,0,0,0,0,0,0,0,0,0,0,0,0,1558,0,0,0,0,0,0,0,0,0,0,0,0,0,0,0,0,0,0,0,0,0,0,0,0,0,0,0,0,0,0,0,0,0,0,65,0,0,0,586,
0,0,0,0,0,0,0,0,0,0,0,0,0,0,0,0,0,0,0,0,0,0,0,0,1574,0,0,0,0,0,0,0,0,0,0,0,0,0,0,0,0,0,0,0,0,0,0,0,0,0,0,0,84,0,0,0,0,0,0,82,0,0,0,603,
0,0,0,0,0,0,0,0,0,0,0,0,0,0,0,0,0,0,0,0,0,0,0,0,0,0,0,0,0,0,0,0,0,0,0,0,0,0,0,0,0,0,0,0,0,0,0,0,0,0,0,0,101,0,0,0,0,0,0,99,0,0,0,586,
0,0,0,0,0,0,0,0,0,0,0,0,0,0,0,0,0,0,0,0,0,0,0,0,1558,0,0,0,0,0,0,0,0,0,0,0,0,0,0,0,0,0,0,0,0,0,0,0,0,0,0,0,0,0,0,0,0,0,0,0,0,0,0,603,
0,0,0,0,0,0,0,0,0,0,0,0,0,0,0,0,0,0,0,0,0,0,0,0,1574,0,0,0,0,0,0,0,0,0,0,0,0,0,0,0,0,0,0,0,0,0,0,0,0,0,0,0,0,0,0,0,0,0,0,0,0,0,0,586,
0,0,0,0,0,0,0,0,0,0,0,0,0,0,0,0,0,0,0,0,0,0,1588,1589,1590,0,0,0,0,0,0,0,0,0,0,0,0,0,0,0,0,0,0,0,0,0,0,0,0,0,0,0,0,0,0,0,0,0,0,0,0,0,0,603,
0,0,0,0,0,0,0,0,0,0,0,0,0,0,0,0,0,0,0,0,0,0,0,0,0,0,0,0,0,0,0,0,0,0,0,0,0,0,0,0,0,0,0,0,0,0,0,0,0,0,0,0,0,0,0,0,0,65,0,0,0,0,0,586,
0,0,0,0,0,0,0,0,0,0,0,0,0,0,0,0,0,0,0,0,0,0,0,0,0,0,0,0,0,0,0,0,0,0,0,0,0,0,0,0,0,0,0,0,0,0,0,0,0,0,0,0,0,0,0,0,0,82,0,0,0,0,0,603,
0,0,0,0,0,0,0,0,0,0,0,0,0,0,0,0,0,0,0,0,0,0,0,0,0,0,0,0,0,0,0,0,0,0,0,0,0,0,0,0,0,0,0,0,0,0,0,0,0,0,0,0,0,0,0,0,0,99,0,0,0,0,0,586,
0,0,0,0,0,1585,0,1588,0,0,0,0,0,0,0,0,0,0,0,0,0,0,0,0,0,0,0,0,0,0,0,0,0,0,0,0,0,0,0,0,0,0,0,0,0,0,0,0,0,0,0,0,0,0,132,0,0,0,0,0,0,0,0,603,
0,1519,1520,1521,1522,0,0,0,1526,0,0,0,0,0,0,0,0,0,0,0,0,0,0,0,0,0,0,0,0,0,0,0,0,0,0,0,0,0,0,0,0,0,0,0,0,0,0,0,0,0,65,0,0,0,149,0,0,0,0,0,0,0,0,586,
0,1551,0,0,0,0,0,0,1542,0,0,0,0,0,0,0,0,0,0,0,0,0,0,0,0,0,0,0,0,0,0,0,0,0,0,0,0,0,0,0,0,0,0,0,0,0,0,0,0,0,82,0,0,0,0,0,0,0,0,0,0,0,0,603,
0,1567,0,0,0,0,0,0,1558,0,0,0,0,0,0,0,0,0,0,0,0,0,0,0,0,0,0,0,0,0,0,0,0,0,0,0,0,0,0,0,0,0,0,0,0,0,0,0,0,0,99,0,0,0,0,0,0,0,0,0,0,0,0,586,
0,1551,0,0,0,0,0,0,1574,0,0,0,0,0,0,0,0,0,0,0,0,0,0,0,0,0,0,0,0,0,0,0,0,0,0,0,0,0,0,0,0,0,0,0,0,0,0,0,0,0,0,0,0,0,0,134,0,0,0,0,0,0,0,603,
0,1567,0,0,0,0,0,0,1542,0,0,0,0,0,0,0,0,0,0,0,0,0,0,0,0,0,0,0,0,0,0,0,0,0,0,0,0,0,0,0,0,0,0,0,0,0,0,0,0,0,0,0,0,0,0,0,0,0,0,0,0,0,0,586,
0,1551,0,0,0,0,0,0,1558,0,0,0,0,0,0,0,0,0,0,0,0,0,0,0,0,0,0,0,0,0,0,0,0,0,0,0,0,0,0,0,0,0,0,0,0,0,0,0,0,0,1410,0,0,1402,0,0,1408,0,0,1412,0,0,0,603,
0,1567,0,0,0,0,0,0,1574,0,0,0,0,0,0,0,0,0,0,0,0,0,0,0,0,0,0,0,0,0,0,0,0,0,0,0,0,0,0,0,0,0,0,0,0,0,0,0,0,0,1426,0,0,1418,0,0,1424,0,0,1428,0,0,0,586,
0,1551,0,0,0,0,0,0,1542,0,0,0,0,0,0,0,0,0,0,0,0,0,0,0,0,0,0,0,0,0,0,0,0,0,0,0,0,0,0,0,0,0,0,0,0,0,0,0,0,0,1442,0,0,1434,0,0,1440,0,0,1444,0,0,0,603,
0,1567,0,0,0,0,0,0,1558,0,0,0,0,0,0,0,0,0,0,0,0,0,0,0,0,0,0,0,0,0,0,0,0,0,0,0,0,0,0,0,0,0,0,0,0,0,0,0,0,1395,1396,0,0,0,0,0,0,0,0,0,0,0,0,586,
0,1535,0,0,0,0,0,0,1542,0,0,0,0,0,0,0,0,0,0,0,0,0,0,0,0,0,0,0,0,0,0,0,0,0,0,0,0,0,0,0,0,0,0,0,0,0,0,0,0,1411,1412,0,1403,1404,0,0,0,1406,1407,1408,0,0,0,603,
0,1551,0,0,0,0,0,0,1558,0,0,0,0,0,0,0,0,0,0,0,0,0,0,0,0,0,0,0,0,0,0,0,0,0,0,0,0,0,0,0,0,0,0,0,0,0,0,0,0,1427,1428,0,1419,1420,0,0,0,1422,1423,1424,0,0,0,586,
0,1567,0,0,0,0,0,0,1574,0,0,0,0,0,0,0,0,0,0,0,0,0,0,0,0,0,0,0,0,0,0,0,0,0,0,0,0,0,0,0,0,0,0,0,0,0,0,0,0,1443,1444,0,1435,1436,0,0,0,1438,1439,1440,0,0,0,603,
0,1583,1589,1589,1589,1589,1589,1589,1590,0,0,0,0,0,0,0,0,0,0,0,0,0,0,0,0,0,0,0,0,0,0,0,0,0,0,0,0,0,0,0,0,0,0,0,0,0,0,0,0,0,0,0,0,0,0,0,0,0,0,0,0,0,0,586,
0,0,0,0,0,0,0,0,0,0,0,0,0,0,0,0,0,0,0,0,0,0,0,0,0,0,0,0,0,0,0,0,0,0,0,0,0,0,0,0,0,0,0,0,0,0,0,0,0,0,0,0,0,0,0,0,0,0,0,0,0,0,0,603,
0,0,0,0,0,0,0,0,0,0,0,0,0,0,0,0,0,0,0,0,0,0,0,0,0,0,0,0,0,0,0,0,0,0,0,0,0,0,0,0,0,0,0,0,0,0,0,0,0,0,0,0,0,0,0,0,0,0,0,0,0,0,0,586,
0,0,0,0,0,0,0,0,0,0,0,0,0,0,0,0,0,0,0,0,0,0,0,0,0,0,0,0,0,0,0,0,0,0,0,0,0,0,0,0,0,0,0,0,0,0,0,0,0,0,0,0,0,0,0,0,0,0,0,0,0,0,0,603,
0,0,0,0,0,0,0,0,0,0,0,0,0,0,0,0,0,0,0,0,0,0,0,0,0,0,0,0,0,0,0,0,0,0,0,0,0,0,0,0,0,0,0,0,0,0,0,0,0,0,0,0,0,0,0,0,0,0,0,0,0,0,0,586,
0,0,0,0,0,0,0,0,0,0,0,0,0,0,0,0,0,0,0,0,0,0,0,0,0,0,0,0,0,0,0,0,0,0,0,0,0,0,0,0,0,0,0,0,0,0,0,0,0,0,0,0,0,0,0,0,0,0,0,0,0,0,0,603,
0,0,0,0,0,0,0,0,0,0,0,0,0,0,0,0,0,0,0,0,0,0,0,0,1525,1526,0,0,0,0,0,0,0,0,0,0,0,0,0,0,0,0,0,0,0,0,0,0,0,0,0,0,0,0,0,0,0,0,0,0,0,0,0,586,
0,0,0,0,0,0,0,0,0,0,0,0,0,0,0,0,0,0,0,0,0,0,0,0,1541,1542,0,0,0,0,0,0,0,0,0,0,0,0,0,0,0,0,0,0,0,0,0,0,0,0,0,0,0,0,0,0,0,0,0,0,0,0,0,603,
0,0,0,0,0,0,0,0,0,0,0,0,0,0,0,0,0,0,0,0,0,0,0,0,1557,1558,0,0,0,0,0,0,0,0,0,0,0,0,0,0,0,0,0,0,0,0,0,0,0,0,0,0,0,0,0,0,0,0,0,0,0,0,0,586,
0,0,0,0,0,0,0,0,0,0,0,0,0,0,0,0,0,0,0,0,0,0,0,0,1573,1574,0,0,0,0,0,0,0,0,0,0,0,0,0,0,0,0,0,0,0,0,0,0,0,0,0,0,0,0,0,0,0,0,0,0,0,0,0,603,
0,0,0,0,0,0,0,0,0,0,0,0,0,0,0,0,0,0,0,0,0,0,0,0,0,1542,0,0,0,0,0,0,0,0,0,0,0,0,0,0,0,0,0,0,0,0,0,0,0,0,0,0,0,0,0,0,0,0,0,0,0,0,0,586,
0,0,0,0,0,0,0,0,0,0,0,0,0,0,0,0,0,0,0,0,0,0,0,0,0,1558,0,0,0,0,0,0,0,0,0,0,0,0,0,0,0,0,0,0,0,0,0,0,0,0,0,0,0,0,0,0,0,0,0,0,0,0,0,603,
0,0,0,0,0,0,0,0,0,0,0,0,0,0,0,0,0,0,0,0,0,0,0,0,0,1574,0,0,0,0,0,0,0,0,0,0,0,0,0,0,0,0,0,0,0,0,0,0,0,0,0,0,0,0,0,0,0,0,0,0,0,0,0,586,
0,0,0,0,0,0,0,0,0,0,0,0,0,0,0,0,0,0,0,0,0,0,0,0,0,1542,0,0,0,0,0,0,0,0,0,0,0,0,0,0,0,0,0,0,0,0,0,0,0,0,0,0,0,0,0,0,0,0,0,0,0,0,0,603,
0,0,0,0,0,0,0,0,0,0,0,0,0,0,0,0,0,0,0,0,0,0,0,0,0,1558,0,0,0,0,0,0,0,0,0,0,0,0,0,0,0,0,0,0,0,0,0,0,0,0,0,0,0,0,0,0,0,0,0,0,0,0,0,586,
0,0,0,0,0,0,0,0,0,0,0,0,0,0,0,0,0,0,0,0,0,0,0,0,0,1574,0,0,0,0,0,0,0,0,0,0,0,0,0,0,0,0,0,0,0,0,0,0,0,0,0,0,0,0,0,0,0,0,0,0,0,0,0,603,
0,0,0,0,0,0,0,0,0,0,0,0,0,0,0,0,0,0,0,0,0,0,0,0,0,0,1522,1523,1524,1525,1526,0,0,0,0,0,0,0,0,0,0,0,0,0,0,0,0,0,0,0,0,0,0,0,0,0,0,0,0,0,0,0,0,586,
0,0,0,0,0,0,0,0,0,0,0,0,0,0,0,0,0,0,0,0,0,0,0,0,0,0,0,0,0,0,1542,0,0,0,0,0,0,0,0,0,0,0,0,0,0,0,0,0,0,0,0,0,0,0,0,0,0,0,0,0,0,0,0,603,
0,0,0,0,0,0,0,0,0,0,0,0,0,0,0,0,0,0,0,0,0,0,0,0,0,0,0,0,0,0,1558,0,0,0,0,0,0,0,0,0,0,0,0,0,0,0,0,0,0,0,0,0,0,0,0,0,0,0,0,0,0,0,0,608
</data>
 </layer>
</map>
